assets/flagsAndGeo/svg/tuv.svg

<?xml version="1.0" encoding="UTF-8"?>
<svg xmlns="http://www.w3.org/2000/svg" viewBox="0 0 1200 600" xmlns:xlink="http://www.w3.org/1999/xlink" width="1200" height="600">
<defs>
<clipPath id="c">
<path d="M0,0V150H700V300H600zM0,300V400H300V0H600z"/>
</clipPath>
<path id="star" fill="#ffce00" d="M0,-50.0808 29.4368,40.5162 -47.6297,-15.4758H47.6297L-29.4368,40.5172z"/>
<use id="rats" xlink:href="#star" transform="rotate(36)"/>
</defs>
<rect width="1200" height="600" fill="#00247d"/>
<path d="M0,0 600,300M0,300 600,0" stroke="#fff" stroke-width="60"/>
<path d="M0,0 600,300M0,300 600,0" stroke="#cf142b" stroke-width="40" clip-path="url(#c)"/>
<path d="M300,0V400M0,150H700" stroke="#fff" stroke-width="100"/>
<path d="M300,0V400M0,150H700" stroke="#cf142b" stroke-width="60"/>
<path d="M0,300H600V0H1200V600H0z" fill="#5b97b1"/>
<use xlink:href="#star" x="645.3396" y="540.9936"/>
<use xlink:href="#rats" x="788.0256" y="504.516"/>
<use xlink:href="#rats" x="788.0256" y="382.5324"/>
<use xlink:href="#rats" x="914.0304" y="473.6844"/>
<use xlink:href="#rats" x="914.0304" y="208.2708"/>
<use xlink:href="#star" x="996.4416" y="390.0456"/>
<use xlink:href="#rats" x="1019.928" y="172.0776"/>
<use xlink:href="#star" x="1102.836" y="321.5544"/>
<use xlink:href="#star" x="1102.836" y="87.486"/>
</svg>

<?xml version="1.0" encoding="UTF-8"?>
<svg xmlns="http://www.w3.org/2000/svg" xmlns:xlink="http://www.w3.org/1999/xlink" width="1200" height="600" viewBox="0 0 1200 600">
    <defs>
        <clipPath id="tuv_b">
            <path d="M0 0v150h700v150H600zm0 300v100h300V0h300z"/>
        </clipPath>
		<clipPath id="tuv_d">
			<path d="M0 0v600h1200V0z"/>
		</clipPath>
        <path id="tuv_a" fill="#ffce00" d="m0-50.08 29.437 90.596-77.067-55.992h95.26l-77.067 55.993z"/>
        <use id="tuv_c" xlink:href="#tuv_a" transform="rotate(36)"/>
    </defs>
    <path fill="#00247d" d="M0 0h1200v600H0z"/>
    <path d="m0 0 600 300M0 300 600 0" stroke="#fff" stroke-width="60" clip-path="url(#tuv_d)"/>
    <path d="m0 0 600 300M0 300 600 0" stroke="#cf142b" stroke-width="40" clip-path="url(#tuv_b)"/>
    <path d="M300 0v400M0 150h700" stroke="#fff" stroke-width="100"/>
    <path d="M300 0v400M0 150h700" stroke="#cf142b" stroke-width="60"/>
    <path d="M0 300h600V0h600v600H0z" fill="#5b97b1"/>
    <use xlink:href="#tuv_a" x="645.34" y="540.994"/>
    <use xlink:href="#tuv_c" x="788.026" y="504.516"/>
    <use xlink:href="#tuv_c" x="788.026" y="382.532"/>
    <use xlink:href="#tuv_c" x="914.03" y="473.684"/>
    <use xlink:href="#tuv_c" x="914.03" y="208.271"/>
    <use xlink:href="#tuv_a" x="996.442" y="390.046"/>
    <use xlink:href="#tuv_c" x="1019.928" y="172.078"/>
    <use xlink:href="#tuv_a" x="1102.836" y="321.554"/>
    <use xlink:href="#tuv_a" x="1102.836" y="87.486"/>
</svg>
